X:1
T: The Lonach Gathering
C:David Gordon
R:Reel
Q: 232
K:A
M:4/4
L:1/8
|:"Play 3 times"cd|ea ag ae cA|fg af ec A2|de fd cd "( for The Fairbridge Reel (Bk45) )"ec|Bc BA GE FG|
Aa ag ae cA|de fa ec A2|FB df ea fd|ce dB A2 fg|
ag fa gf eg|fe df ea A2|dc Bd cB Ac|Bc Bf ed cB|
A2 cA eA ce|fg af ec A2|FB df ea fd|1|2ce dB A2 cd:|"3"ce dB A2||
